G28
T0
M109
M190
M106 S255
;Begin Tool 0
T0
G1 Z0.300 F1800.000
G92 E0; zero extruder
G1 Y-33 F12000; move to front of machine
G1 E15 F6000; extrude 15 mm fast
G1 E30 F150 ; extrude another 15 mm slow
G1 E28 F6000 ; retract 2mm
G4 S2; wait for 2 seconds
; perform wipe sequence
G1 X308 F12000
G1 X330 F12000
G1 X308 F12000
G1 X330 F12000
G92 E0; zero extruder
G1 Z0.300 F1800.000
;Vertical line #0 Tool 0
G1 X26.500 Y50.000 F12000.000
G1 Z0.150 F1800.000
G1 X26.500 Y100.000 E1.227 F1800.000
G1 E-0.773 F3000.000
;Vertical line #1 Tool 0
G1 X41.500 Y50.000 F12000.000
G1 E1.327 F3000.000
G1 X41.500 Y100.000 E2.555 F1800.000
G1 E0.555 F3000.000
;Vertical line #2 Tool 0
G1 X56.500 Y50.000 F12000.000
G1 E2.655 F3000.000
G1 X56.500 Y100.000 E3.882 F1800.000
G1 E1.882 F3000.000
;Vertical line #3 Tool 0
G1 X71.500 Y50.000 F12000.000
G1 E3.982 F3000.000
G1 X71.500 Y100.000 E5.209 F1800.000
G1 E3.209 F3000.000
;Vertical line #4 Tool 0
G1 X86.500 Y50.000 F12000.000
G1 E5.309 F3000.000
G1 X86.500 Y100.000 E6.536 F1800.000
G1 E4.536 F3000.000
;Vertical line #5 Tool 0
G1 X101.500 Y50.000 F12000.000
G1 E6.636 F3000.000
G1 X101.500 Y100.000 E7.864 F1800.000
G1 E5.864 F3000.000
;Vertical line #6 Tool 0
G1 X116.500 Y50.000 F12000.000
G1 E7.964 F3000.000
G1 X116.500 Y100.000 E9.191 F1800.000
G1 E7.191 F3000.000
;Vertical line #7 Tool 0
G1 X131.500 Y50.000 F12000.000
G1 E9.291 F3000.000
G1 X131.500 Y100.000 E10.518 F1800.000
G1 E8.518 F3000.000
;Begin circle
G1 X150.500 Y40.000 E8.518 F12000.000
G1 E10.618 F3000.000
G1 X150.467 Y40.512 E10.630 F1800.000
G1 X150.369 Y41.015 E10.643 F1800.000
G1 X150.208 Y41.501 E10.655 F1800.000
G1 X149.985 Y41.963 E10.668 F1800.000
G1 X149.706 Y42.392 E10.680 F1800.000
G1 X149.373 Y42.783 E10.692 F1800.000
G1 X148.994 Y43.127 E10.705 F1800.000
G1 X148.574 Y43.421 E10.717 F1800.000
G1 X148.119 Y43.658 E10.729 F1800.000
G1 X147.638 Y43.835 E10.742 F1800.000
G1 X147.138 Y43.949 E10.754 F1800.000
G1 X146.628 Y43.998 E10.766 F1800.000
G1 X146.116 Y43.982 E10.779 F1800.000
G1 X145.610 Y43.900 E10.791 F1800.000
G1 X145.119 Y43.754 E10.803 F1800.000
G1 X144.650 Y43.546 E10.816 F1800.000
G1 X144.212 Y43.281 E10.828 F1800.000
G1 X143.811 Y42.961 E10.840 F1800.000
G1 X143.454 Y42.593 E10.853 F1800.000
G1 X143.148 Y42.182 E10.865 F1800.000
G1 X142.896 Y41.736 E10.877 F1800.000
G1 X142.704 Y41.260 E10.890 F1800.000
G1 X142.574 Y40.765 E10.902 F1800.000
G1 X142.508 Y40.256 E10.914 F1800.000
G1 X142.508 Y39.744 E10.927 F1800.000
G1 X142.574 Y39.235 E10.939 F1800.000
G1 X142.704 Y38.740 E10.951 F1800.000
G1 X142.896 Y38.264 E10.964 F1800.000
G1 X143.148 Y37.818 E10.976 F1800.000
G1 X143.454 Y37.407 E10.988 F1800.000
G1 X143.811 Y37.039 E11.001 F1800.000
G1 X144.212 Y36.719 E11.013 F1800.000
G1 X144.650 Y36.454 E11.025 F1800.000
G1 X145.119 Y36.246 E11.038 F1800.000
G1 X145.610 Y36.100 E11.050 F1800.000
G1 X146.116 Y36.018 E11.062 F1800.000
G1 X146.628 Y36.002 E11.075 F1800.000
G1 X147.138 Y36.051 E11.087 F1800.000
G1 X147.638 Y36.165 E11.099 F1800.000
G1 X148.119 Y36.342 E11.112 F1800.000
G1 X148.574 Y36.579 E11.124 F1800.000
G1 X148.994 Y36.873 E11.136 F1800.000
G1 X149.373 Y37.217 E11.149 F1800.000
G1 X149.706 Y37.608 E11.161 F1800.000
G1 X149.985 Y38.037 E11.173 F1800.000
G1 X150.208 Y38.499 E11.186 F1800.000
G1 X150.369 Y38.985 E11.198 F1800.000
G1 X150.467 Y39.488 E11.210 F1800.000
G1 X150.500 Y40.000 E11.223 F1800.000
G1 E9.223 F3000.000
;Vertical line #8 Tool 0
G1 X146.500 Y50.000 F12000.000
G1 E11.323 F3000.000
G1 X146.500 Y100.000 E12.550 F1800.000
G1 E10.550 F3000.000
;Vertical line #9 Tool 0
G1 X161.500 Y50.000 F12000.000
G1 E12.650 F3000.000
G1 X161.500 Y100.000 E13.877 F1800.000
G1 E11.877 F3000.000
;Vertical line #10 Tool 0
G1 X176.500 Y50.000 F12000.000
G1 E13.977 F3000.000
G1 X176.500 Y100.000 E15.205 F1800.000
G1 E13.205 F3000.000
;Vertical line #11 Tool 0
G1 X191.500 Y50.000 F12000.000
G1 E15.305 F3000.000
G1 X191.500 Y100.000 E16.532 F1800.000
G1 E14.532 F3000.000
;Vertical line #12 Tool 0
G1 X206.500 Y50.000 F12000.000
G1 E16.632 F3000.000
G1 X206.500 Y100.000 E17.859 F1800.000
G1 E15.859 F3000.000
;Vertical line #13 Tool 0
G1 X221.500 Y50.000 F12000.000
G1 E17.959 F3000.000
G1 X221.500 Y100.000 E19.186 F1800.000
G1 E17.186 F3000.000
;Vertical line #14 Tool 0
G1 X236.500 Y50.000 F12000.000
G1 E19.286 F3000.000
G1 X236.500 Y100.000 E20.514 F1800.000
G1 E18.514 F3000.000
;Vertical line #15 Tool 0
G1 X251.500 Y50.000 F12000.000
G1 E20.614 F3000.000
G1 X251.500 Y100.000 E21.841 F1800.000
G1 E19.841 F3000.000
;Vertical line #16 Tool 0
G1 X266.500 Y50.000 F12000.000
G1 E21.941 F3000.000
G1 X266.500 Y100.000 E23.168 F1800.000
G1 E21.168 F3000.000
;Begin Tool 1
T1
G1 Z0.450 F1800.000
G92 E0; zero extruder
G1 Y-33 F12000; move to front of machine
G1 E15 F6000; extrude 15 mm fast
G1 E30 F150 ; extrude another 15 mm slow
G1 E28 F6000 ; retract 2mm
G4 S2; wait for 2 seconds
; perform wipe sequence
G1 X-17 F12000
G1 X-37 F12000
G1 X-17 F12000
G1 X-37 F12000
G92 E0; zero extruder
G1 Z0.450 F1800.000
;Vertical line #0 Tool 1
G1 X18.500 Y50.000 F12000.000
G1 Z0.300 F1800.000
G1 X18.500 Y100.000 E1.227 F1800.000
G1 E-0.773 F3000.000
;Vertical line #1 Tool 1
G1 X34.500 Y50.000 F12000.000
G1 E1.327 F3000.000
G1 X34.500 Y100.000 E2.555 F1800.000
G1 E0.555 F3000.000
;Vertical line #2 Tool 1
G1 X50.500 Y50.000 F12000.000
G1 E2.655 F3000.000
G1 X50.500 Y100.000 E3.882 F1800.000
G1 E1.882 F3000.000
;Vertical line #3 Tool 1
G1 X66.500 Y50.000 F12000.000
G1 E3.982 F3000.000
G1 X66.500 Y100.000 E5.209 F1800.000
G1 E3.209 F3000.000
;Vertical line #4 Tool 1
G1 X82.500 Y50.000 F12000.000
G1 E5.309 F3000.000
G1 X82.500 Y100.000 E6.536 F1800.000
G1 E4.536 F3000.000
;Vertical line #5 Tool 1
G1 X98.500 Y50.000 F12000.000
G1 E6.636 F3000.000
G1 X98.500 Y100.000 E7.864 F1800.000
G1 E5.864 F3000.000
;Vertical line #6 Tool 1
G1 X114.500 Y50.000 F12000.000
G1 E7.964 F3000.000
G1 X114.500 Y100.000 E9.191 F1800.000
G1 E7.191 F3000.000
;Vertical line #7 Tool 1
G1 X130.500 Y50.000 F12000.000
G1 E9.291 F3000.000
G1 X130.500 Y100.000 E10.518 F1800.000
G1 E8.518 F3000.000
;Vertical line #8 Tool 1
G1 X146.500 Y50.000 F12000.000
G1 E10.618 F3000.000
G1 X146.500 Y100.000 E11.845 F1800.000
G1 E9.845 F3000.000
;Vertical line #9 Tool 1
G1 X162.500 Y50.000 F12000.000
G1 E11.945 F3000.000
G1 X162.500 Y100.000 E13.173 F1800.000
G1 E11.173 F3000.000
;Vertical line #10 Tool 1
G1 X178.500 Y50.000 F12000.000
G1 E13.273 F3000.000
G1 X178.500 Y100.000 E14.500 F1800.000
G1 E12.500 F3000.000
;Vertical line #11 Tool 1
G1 X194.500 Y50.000 F12000.000
G1 E14.600 F3000.000
G1 X194.500 Y100.000 E15.827 F1800.000
G1 E13.827 F3000.000
;Vertical line #12 Tool 1
G1 X210.500 Y50.000 F12000.000
G1 E15.927 F3000.000
G1 X210.500 Y100.000 E17.155 F1800.000
G1 E15.155 F3000.000
;Vertical line #13 Tool 1
G1 X226.500 Y50.000 F12000.000
G1 E17.255 F3000.000
G1 X226.500 Y100.000 E18.482 F1800.000
G1 E16.482 F3000.000
;Vertical line #14 Tool 1
G1 X242.500 Y50.000 F12000.000
G1 E18.582 F3000.000
G1 X242.500 Y100.000 E19.809 F1800.000
G1 E17.809 F3000.000
;Vertical line #15 Tool 1
G1 X258.500 Y50.000 F12000.000
G1 E19.909 F3000.000
G1 X258.500 Y100.000 E21.136 F1800.000
G1 E19.136 F3000.000
;Vertical line #16 Tool 1
G1 X274.500 Y50.000 F12000.000
G1 E21.236 F3000.000
G1 X274.500 Y100.000 E22.464 F1800.000
G1 E20.464 F3000.000
G1 Z20 F600
G28 X0 Y0
M84
M107
M400
