G28
T0
M109
M190
M106 S255
;Begin Tool 0
T0
G1 Z0.300 F1800.000
G92 E0; zero extruder
G1 Y-33 F12000; move to front of machine
G1 E15 F6000; extrude 15 mm fast
G1 E30 F150 ; extrude another 15 mm slow
G1 E28 F6000 ; retract 2mm
G4 S2; wait for 2 seconds
; perform wipe sequence
G1 X308 F12000
G1 X330 F12000
G1 X308 F12000
G1 X330 F12000
G92 E0; zero extruder
G1 Z0.300 F1800.000
;Vertical line #0 Tool 0
G1 X26.500 Y230.000 F12000.000
G1 Z0.150 F1800.000
G1 E2.100 F3000.000
G1 X26.500 Y280.000 E3.327 F1800.000
G1 E1.327 F3000.000
;Vertical line #1 Tool 0
G1 X41.500 Y230.000 F12000.000
G1 E3.427 F3000.000
G1 X41.500 Y280.000 E4.655 F1800.000
G1 E2.655 F3000.000
;Vertical line #2 Tool 0
G1 X56.500 Y230.000 F12000.000
G1 E4.755 F3000.000
G1 X56.500 Y280.000 E5.982 F1800.000
G1 E3.982 F3000.000
;Vertical line #3 Tool 0
G1 X71.500 Y230.000 F12000.000
G1 E6.082 F3000.000
G1 X71.500 Y280.000 E7.309 F1800.000
G1 E5.309 F3000.000
;Vertical line #4 Tool 0
G1 X86.500 Y230.000 F12000.000
G1 E7.409 F3000.000
G1 X86.500 Y280.000 E8.636 F1800.000
G1 E6.636 F3000.000
;Vertical line #5 Tool 0
G1 X101.500 Y230.000 F12000.000
G1 E8.736 F3000.000
G1 X101.500 Y280.000 E9.964 F1800.000
G1 E7.964 F3000.000
;Vertical line #6 Tool 0
G1 X116.500 Y230.000 F12000.000
G1 E10.064 F3000.000
G1 X116.500 Y280.000 E11.291 F1800.000
G1 E9.291 F3000.000
;Vertical line #7 Tool 0
G1 X131.500 Y230.000 F12000.000
G1 E11.391 F3000.000
G1 X131.500 Y280.000 E12.618 F1800.000
G1 E10.618 F3000.000
;Begin circle
G1 X150.500 Y220.000 E10.618 F12000.000
G1 E12.718 F3000.000
G1 X150.467 Y220.512 E12.730 F1800.000
G1 X150.369 Y221.015 E12.743 F1800.000
G1 X150.208 Y221.501 E12.755 F1800.000
G1 X149.985 Y221.963 E12.768 F1800.000
G1 X149.706 Y222.392 E12.780 F1800.000
G1 X149.373 Y222.783 E12.792 F1800.000
G1 X148.994 Y223.127 E12.805 F1800.000
G1 X148.574 Y223.421 E12.817 F1800.000
G1 X148.119 Y223.658 E12.829 F1800.000
G1 X147.638 Y223.835 E12.842 F1800.000
G1 X147.138 Y223.949 E12.854 F1800.000
G1 X146.628 Y223.998 E12.866 F1800.000
G1 X146.116 Y223.982 E12.879 F1800.000
G1 X145.610 Y223.900 E12.891 F1800.000
G1 X145.119 Y223.754 E12.903 F1800.000
G1 X144.650 Y223.546 E12.916 F1800.000
G1 X144.212 Y223.281 E12.928 F1800.000
G1 X143.811 Y222.961 E12.940 F1800.000
G1 X143.454 Y222.593 E12.953 F1800.000
G1 X143.148 Y222.182 E12.965 F1800.000
G1 X142.896 Y221.736 E12.977 F1800.000
G1 X142.704 Y221.260 E12.990 F1800.000
G1 X142.574 Y220.765 E13.002 F1800.000
G1 X142.508 Y220.256 E13.014 F1800.000
G1 X142.508 Y219.744 E13.027 F1800.000
G1 X142.574 Y219.235 E13.039 F1800.000
G1 X142.704 Y218.740 E13.051 F1800.000
G1 X142.896 Y218.264 E13.064 F1800.000
G1 X143.148 Y217.818 E13.076 F1800.000
G1 X143.454 Y217.407 E13.088 F1800.000
G1 X143.811 Y217.039 E13.101 F1800.000
G1 X144.212 Y216.719 E13.113 F1800.000
G1 X144.650 Y216.454 E13.125 F1800.000
G1 X145.119 Y216.246 E13.138 F1800.000
G1 X145.610 Y216.100 E13.150 F1800.000
G1 X146.116 Y216.018 E13.162 F1800.000
G1 X146.628 Y216.002 E13.175 F1800.000
G1 X147.138 Y216.051 E13.187 F1800.000
G1 X147.638 Y216.165 E13.199 F1800.000
G1 X148.119 Y216.342 E13.212 F1800.000
G1 X148.574 Y216.579 E13.224 F1800.000
G1 X148.994 Y216.873 E13.236 F1800.000
G1 X149.373 Y217.217 E13.249 F1800.000
G1 X149.706 Y217.608 E13.261 F1800.000
G1 X149.985 Y218.037 E13.273 F1800.000
G1 X150.208 Y218.499 E13.286 F1800.000
G1 X150.369 Y218.985 E13.298 F1800.000
G1 X150.467 Y219.488 E13.310 F1800.000
G1 X150.500 Y220.000 E13.323 F1800.000
G1 E11.323 F3000.000
;Vertical line #8 Tool 0
G1 X146.500 Y230.000 F12000.000
G1 E13.423 F3000.000
G1 X146.500 Y280.000 E14.650 F1800.000
G1 E12.650 F3000.000
;Vertical line #9 Tool 0
G1 X161.500 Y230.000 F12000.000
G1 E14.750 F3000.000
G1 X161.500 Y280.000 E15.977 F1800.000
G1 E13.977 F3000.000
;Vertical line #10 Tool 0
G1 X176.500 Y230.000 F12000.000
G1 E16.077 F3000.000
G1 X176.500 Y280.000 E17.305 F1800.000
G1 E15.305 F3000.000
;Vertical line #11 Tool 0
G1 X191.500 Y230.000 F12000.000
G1 E17.405 F3000.000
G1 X191.500 Y280.000 E18.632 F1800.000
G1 E16.632 F3000.000
;Vertical line #12 Tool 0
G1 X206.500 Y230.000 F12000.000
G1 E18.732 F3000.000
G1 X206.500 Y280.000 E19.959 F1800.000
G1 E17.959 F3000.000
;Vertical line #13 Tool 0
G1 X221.500 Y230.000 F12000.000
G1 E20.059 F3000.000
G1 X221.500 Y280.000 E21.286 F1800.000
G1 E19.286 F3000.000
;Vertical line #14 Tool 0
G1 X236.500 Y230.000 F12000.000
G1 E21.386 F3000.000
G1 X236.500 Y280.000 E22.614 F1800.000
G1 E20.614 F3000.000
;Vertical line #15 Tool 0
G1 X251.500 Y230.000 F12000.000
G1 E22.714 F3000.000
G1 X251.500 Y280.000 E23.941 F1800.000
G1 E21.941 F3000.000
;Vertical line #16 Tool 0
G1 X266.500 Y230.000 F12000.000
G1 E24.041 F3000.000
G1 X266.500 Y280.000 E25.268 F1800.000
G1 E23.268 F3000.000
;Begin Tool 1
T1
G1 Z0.450 F1800.000
G92 E0; zero extruder
G1 Y-33 F12000; move to front of machine
G1 E15 F6000; extrude 15 mm fast
G1 E30 F150 ; extrude another 15 mm slow
G1 E28 F6000 ; retract 2mm
G4 S2; wait for 2 seconds
; perform wipe sequence
G1 X-17 F12000
G1 X-37 F12000
G1 X-17 F12000
G1 X-37 F12000
G92 E0; zero extruder
G1 Z0.450 F1800.000
;Vertical line #0 Tool 1
G1 X18.500 Y230.000 F12000.000
G1 Z0.300 F1800.000
G1 E2.100 F3000.000
G1 X18.500 Y280.000 E3.327 F1800.000
G1 E1.327 F3000.000
;Vertical line #1 Tool 1
G1 X34.500 Y230.000 F12000.000
G1 E3.427 F3000.000
G1 X34.500 Y280.000 E4.655 F1800.000
G1 E2.655 F3000.000
;Vertical line #2 Tool 1
G1 X50.500 Y230.000 F12000.000
G1 E4.755 F3000.000
G1 X50.500 Y280.000 E5.982 F1800.000
G1 E3.982 F3000.000
;Vertical line #3 Tool 1
G1 X66.500 Y230.000 F12000.000
G1 E6.082 F3000.000
G1 X66.500 Y280.000 E7.309 F1800.000
G1 E5.309 F3000.000
;Vertical line #4 Tool 1
G1 X82.500 Y230.000 F12000.000
G1 E7.409 F3000.000
G1 X82.500 Y280.000 E8.636 F1800.000
G1 E6.636 F3000.000
;Vertical line #5 Tool 1
G1 X98.500 Y230.000 F12000.000
G1 E8.736 F3000.000
G1 X98.500 Y280.000 E9.964 F1800.000
G1 E7.964 F3000.000
;Vertical line #6 Tool 1
G1 X114.500 Y230.000 F12000.000
G1 E10.064 F3000.000
G1 X114.500 Y280.000 E11.291 F1800.000
G1 E9.291 F3000.000
;Vertical line #7 Tool 1
G1 X130.500 Y230.000 F12000.000
G1 E11.391 F3000.000
G1 X130.500 Y280.000 E12.618 F1800.000
G1 E10.618 F3000.000
;Vertical line #8 Tool 1
G1 X146.500 Y230.000 F12000.000
G1 E12.718 F3000.000
G1 X146.500 Y280.000 E13.945 F1800.000
G1 E11.945 F3000.000
;Vertical line #9 Tool 1
G1 X162.500 Y230.000 F12000.000
G1 E14.045 F3000.000
G1 X162.500 Y280.000 E15.273 F1800.000
G1 E13.273 F3000.000
;Vertical line #10 Tool 1
G1 X178.500 Y230.000 F12000.000
G1 E15.373 F3000.000
G1 X178.500 Y280.000 E16.600 F1800.000
G1 E14.600 F3000.000
;Vertical line #11 Tool 1
G1 X194.500 Y230.000 F12000.000
G1 E16.700 F3000.000
G1 X194.500 Y280.000 E17.927 F1800.000
G1 E15.927 F3000.000
;Vertical line #12 Tool 1
G1 X210.500 Y230.000 F12000.000
G1 E18.027 F3000.000
G1 X210.500 Y280.000 E19.255 F1800.000
G1 E17.255 F3000.000
;Vertical line #13 Tool 1
G1 X226.500 Y230.000 F12000.000
G1 E19.355 F3000.000
G1 X226.500 Y280.000 E20.582 F1800.000
G1 E18.582 F3000.000
;Vertical line #14 Tool 1
G1 X242.500 Y230.000 F12000.000
G1 E20.682 F3000.000
G1 X242.500 Y280.000 E21.909 F1800.000
G1 E19.909 F3000.000
;Vertical line #15 Tool 1
G1 X258.500 Y230.000 F12000.000
G1 E22.009 F3000.000
G1 X258.500 Y280.000 E23.236 F1800.000
G1 E21.236 F3000.000
;Vertical line #16 Tool 1
G1 X274.500 Y230.000 F12000.000
G1 E23.336 F3000.000
G1 X274.500 Y280.000 E24.564 F1800.000
G1 E22.564 F3000.000
G1 Z20 F600
G28 X0 Y0
M84
M107
M400
